!!!!SEGMENT: pl-sa--l-1636--001_anonim--preludium.krn
!!!cenid: 17xx:708
!!!COM: Anonim
!!!COM-rismid: pe30004985
!!!CDT:
!!!CNT:
!!!OTL: Preludium
!!!PDT:
!!!AGN: Secular; Prelude
!!!SMS-siglum: PL-SA
!!!SMS-shelfmark: L 1636
!!!SMS-shelfwork: 001 W
!!!SMS-variant:
!!!SMS-altvar:
!!!NIFC-rismid: 1001076164
!!!URL-scan: http://repozytorium.nifc.pl/skany/pl-sa-nut--l1636
!!!ONB-nifc: 1r, skan 0004, s. 1-2
!!!AIN: 2 organ
!!!key:
**kern	**kern
*part2	*part1
*staff2	*staff1
*Iorgan	*Iorgan
*I"Organo	*I"Organo
*clefF4	*clefC1
*k[]	*k[]
*C:	*C:
*M2/2	*M2/2
*met(c|)	*met(c|)
=1	=1
1C 1E [>1G	8c/L
.	8B/
.	8c/
.	8d/J
.	8e/L
.	8d/
.	8e/
.	8f/J
=2	=2
1BB 1D 1G_>	8g/L
.	8d/
.	8e/
.	8f/J
!	!LO:TX:a:t=P:problem=all\right&colon; global
.	8g\L
.	8a\
.	8b\
.	8g\J
=3	=3
*^	*
2G/]	1AA	8a\L
.	.	8g\
.	.	8a\
!	!	!LO:TX:a:t=P:problem=# above
.	.	8b#\J
2F#X/	.	8a\L
.	.	8b#\
.	.	8cc\
.	.	8a\J
*v	*v	*
=4	=4
1GG 1BB 1D [>1G	8b\L
.	8ee\
.	8dd\
.	8cc\J
.	8b\L
.	8cc\
.	8a\
.	8b\J
=5	=5
1GG 1BB 1D 1G]	8g\L
.	8cc\
.	8b\
.	8a\J
.	8g\L
.	8a\
.	8f\
.	8g\J
=6	=6
8C/L	1e 1g 1cc
8BB/	.
8C/	.
8D/J	.
!LO:TX:a:t=P:problem=all\right&colon; global	!
8E\L	.
8D\	.
8E\	.
8F\J	.
!!LO:LB:g=original
=7	=7
8G\L	1d 1g 1b
!LO:TX:a:t=P:problem=dźwięk nieczytelny [przyjęto zgodnie z t. 2]	!
8D\	.
8E\	.
8F\J	.
8G\L	.
8F\	.
8E\	.
8D\J	.
=8	=8
8C/L	1e 1g 1cc
8GG/	.
8AA/	.
8BB/J	.
8C/L	.
8BB/	.
8AA/	.
8GG/J	.
=9	=9
!LO:TX:a:t=P:problem=mixed beam	!
8FF/L	1f 1a 1cc
8C\	.
8D\	.
8E\J	.
8F\L	.
8G\	.
8A\	.
8B\J	.
=10	=10
8c\L	1e 1g 1cc
8G\	.
8A\	.
8B\J	.
!LO:TX:a:t=P:problem=mixed beam	!
8c\L	.
8C/	.
8E/	.
8F/J	.
=11	=11
*	*^
1C 1E 1G	8g/L	8e\L
.	8g/	8e\
.	8f/	8d\
.	8e/J	8c\J
.	8d/L	8B\L
.	8g/	8e\
.	8f/	8d\
.	8e/J	8c\J
=12	=12	=12
8G\L	4d/	4B\
8F\	.	.
!	!	!LO:SIC:s=8cL
!	!	!LO:N:vis=4
8E\	4e/	8c\
!	!	!LO:SIC:s=8cJ
!	!	!LO:N:vis=4
8D\J	.	8c\
!LO:TX:a:t=P:problem=mixed beam	!	!
8F\L	2d/	2reyy
8D\	.	.
8G\	.	.
8GG^>/J	.	.
*	*v	*v
=13	=13
1CC 1EE 1GG 1C	1c 1e 1g
==	==
*-	*-
!!!system-decoration: [(s1,s2)]
!!!RDF**kern: > = above
!!!RDF**kern: < = below
!!!EED: Mateusz Mrugas
!!!EEV: 2020-12-07
!!!ENC: Andrzej Kubiczek
!!!END: 2020-06-11
